X:912801
T:Hallelujah Melody
% %score M
% %score 1 { ( 2 3 ) | ( 4 5 ) } ( 6 7 ) ( 8 9 ) 10 ( 11 12 )
B:
H:
C:
O:Transcribed by Kevin Fraser
Z:Kevin Fraser
K:A
% K:Amix
% K:AMix sound=A_b
% K:{g}B{d}BMix score=_{g}B{e}A %concert Pitch
L:1/8
Q:3/8=90
M:12/8
%%MIDI drummap ^a 49
%%MIDI drummap ^g 42
%%MIDI drummap _g 46
%%MIDI drummap c 38
%%MIDI drummap F 35
%%MIDI gracedivider 100
%%MIDI gchord
%%MIDI beatstring
% %MIDI program 109 #bagpipes
%%MIDI vol 100
% %MIDI droneon
I:MIDI=program 110
I:linebreak $
V:M clef=treble transpose=-2 nm="Piper Melody" snm="P1 Melody" 
V:M
      c |: {g}e2{A}e {g}e2{A}e {g}f{g}f{g}f- {g}f2c |  {g}e2{A}e {g}e2{A}e {g}f{g}f{g}f {g}f2e| {g}f2{g}f  {g}f2{g}f {g}f2e {g}e2d | {g} e3  {A} e6- e{g}cd  | $
w: I've | heard there was a se-cret chord - that| Da-vid played and it pleased the lord but| you don't real-ly care  for mu-sic | do ya Well it |
         {g}e2{A}e {g}e2{A}e {g}f2{e}f {gf}g2 e | {ag}a2{g}a {g}a2f {ag}a2{g}a B2A         | {g}B2{d}B   {g}B2{d}B {g}c2{d}c {g}c2 B| {g}B2A {GAG}A6 {g}c2e           | $
w: goes like this   the  fourth the fifth the | min-or     fall  the   ma-jor     lift the | baf-fled king com-po-sing hal-le- | lu-jah - Hal-le |$
    {g}f3{GdG}f6 {g}f2e       | {g}c3 {GdG} c6 {g}c2e     | {g}f3{GdG}f6 {g}f2e       | {g}c3-      cBc {gBd}B3-B2 A          | 
w:   lu-jah  Hal-le           | lu-jah  Hal-le            | lu-jah  Hal-le            | lu-jah  Hal-le |
    [1,2 {GAG}A3-A3-A3 z{g}fe :|[3 {GAG}A3-A3-A3|]
w:  jah-        -Well your|


